contributed-vectors/relive.svg

<svg xmlns="http://www.w3.org/2000/svg" xml:space="preserve" style="fill-rule:evenodd;clip-rule:evenodd;stroke-linecap:round;stroke-linejoin:round;stroke-miterlimit:1.5" viewBox="0 0 192 192"><path d="M164.5 21.5c0-5.519-4.481-10-10-10h-133c-5.519 0-10 4.481-10 10v133c0 5.519 4.481 10 10 10h133c5.519 0 10-4.481 10-10v-133Z" style="fill:#f9de81" transform="translate(8 8)"/><path d="m72.284 126.212 21.398-33.936 21.733 33.723-12.177-18.895c9.129-2.305 16.407-10.712 16.407-20.552 0-11.622-9.435-21.057-21.057-21.057-11.621 0-21.056 9.435-21.056 21.057" style="fill:none;stroke:#4a4a4a;stroke-width:6.74px" transform="matrix(.8626 0 0 .8626 12.907 12.825)"/></svg>

<?xml version="1.0" encoding="UTF-8" standalone="no"?>
<!DOCTYPE svg PUBLIC "-//W3C//DTD SVG 1.1//EN" "http://www.w3.org/Graphics/SVG/1.1/DTD/svg11.dtd">
<svg width="100%" height="100%" viewBox="0 0 192 192" version="1.1" xmlns="http://www.w3.org/2000/svg" xmlns:xlink="http://www.w3.org/1999/xlink" xml:space="preserve" xmlns:serif="http://www.serif.com/" style="fill-rule:evenodd;clip-rule:evenodd;stroke-linecap:round;stroke-linejoin:round;stroke-miterlimit:1.5;">
    <g transform="matrix(1,0,0,1,8,8)">
        <path d="M164.5,21.5C164.5,15.981 160.019,11.5 154.5,11.5L21.5,11.5C15.981,11.5 11.5,15.981 11.5,21.5L11.5,154.5C11.5,160.019 15.981,164.5 21.5,164.5L154.5,164.5C160.019,164.5 164.5,160.019 164.5,154.5L164.5,21.5Z" style="fill:rgb(249,222,129);"/>
        <g transform="matrix(0.862604,0,0,0.862604,4.90696,4.82463)">
            <path d="M72.284,126.212L93.682,92.276L115.415,125.999L103.238,107.104C112.367,104.799 119.645,96.392 119.645,86.552C119.645,74.93 110.21,65.495 98.588,65.495C86.967,65.495 77.532,74.93 77.532,86.552" style="fill:none;stroke:rgb(74,74,74);stroke-width:6.74px;"/>
        </g>
    </g>
</svg>
